X:2043
T:Polsk Dands 
T:(Totakt-pols, nr. SCR-84)
S:efter Søren Christensen Ranch notbok på Dansk Folkmindessamling
O:Mariager , Gerlev, Randers amt (Danmark)
R:Totakt-pols
Z:Åke Persson 2011-06-26
M:2/4
L:1/8
K:C
|: ec ((3cB/c/) | ec ((3cB/c/) | ddgg | e2 c2 :|
|: aff(e/f/) | geed/e/ | fdcB | ce g2 | aff(e/f/) | gee(d/e/) | fdcB | d2 c2 :|
(:musicend:)

Triolerna i de två första takterna är skrivna så i notboken.
(:music:)
